X: 3393
T: AIR FROM "MARTHA."
%R: air, march
B: James Kerr "Merry Melodies" v.3 p.43 #393
Z: 2016 John Chambers <jc:trillian.mit.edu>
M: 2/4
L: 1/8
K: G
|:\
vg2 d2 | e>fge | d>edB | dAAz |\
vg2 d2 | e>fge | d>edA | BGGz H::\
dgba | gdgf | ecge | edd2 |\
dedc Bdg2 | gbd'b | baaz :|

%%sep 1 1 500
%%sep 1 1 500

